X:46
T:Drowsy Maggie
S:David Bromberg, Jerry Holland (WM August 1997)
A:Ireland
R:Reel
M:C|
L:1/8
R:Reel
K:EDor
P:Irish Variation
|:"Em"~E2 BE dEBE| ~E2 BE "D"AFDF |"Em"~E2 BE dEBE | "D"BABc dAFD :|
"D"~d2fd "A"~c2ec|"D"defg afge | ~d2fd "A"~c2ec | "G"BABc dAFA |
"D"~d2fd "A"~c2ec|"D"defg ~a2 fg| afge fdec| "Em"BABc dAFD ||
P:Cape Breton variation
"Em"E/E/E BE dEBE| E/E/E BE "D"AFDF |"Em"E/E/E BE dEBE | "D"BABc dBAF |
"Em"E/E/E d2 E/E/E c2| E/E/E B2 "D"AFDF |"Em"E/E/E dE cEBE | "D"BABc dAFA ||
"D"d/d/d fd "A"(cd)ec|"D"defg afge | d/d/d fd "A"(cd)ec | "G"BABc dAFA |
"D"d2fd "A"(cd)ec|"D"defg afge| afge fdec| "Em"BABc dAFD ||
